X:87
T:Napoleon’s March. WI.087
M:C|
L:1/8
Q:1/2=90
S:Wm Irwin, Folio MS, c1850. AGG’s Transcription
R:.March
O:England
A:Lake District
Z:vmp.Chris Partington.2005
K:D
A2|d2d>d d2A2|e2e>e e2de|f2ef g2f2|e2e>e e2A2|!
dd AA FF AA|dd AA FF AA|d3f edef|d2d>d d2:|!
|:f2|edcB ABcA|d2d>d d2f2|edcB ABcA|d2d>d defd|!
B2g2 g2fe|A2f2 f2gf|edef edef|d2d>d d2:|!
|:fg|”tr”a4″tr”b4|a2ag f2a2|” etc”zzzz|

